src/assets/imgs/ico_daohang.svg

<?xml version="1.0" encoding="UTF-8"?>
<svg width="16px" height="16px" viewBox="0 0 16 16" version="1.1" xmlns="http://www.w3.org/2000/svg" xmlns:xlink="http://www.w3.org/1999/xlink">
    <title>ico_daohang</title>
    <g id="页面-1" stroke="none" stroke-width="1" fill="none" fill-rule="evenodd">
        <g id="4-更多-弹窗" transform="translate(-339.000000, -102.000000)" fill="#0072FF" fill-rule="nonzero">
            <g id="编组-2" transform="translate(0.000000, 88.000000)">
                <g id="编组-14备份" transform="translate(335.000000, 10.000000)">
                    <g id="编组" transform="translate(4.000000, 4.000000)">
                        <path d="M14.2530689,1.29272331 C13.9607185,0.994271389 13.5084603,0.920158518 13.1361427,1.10968937 L0.536422156,4.91120633 C0.170744912,5.09741419 -0.0392512036,5.49260902 0.0110728597,5.89986901 C0.0585778443,6.3137213 0.348637725,6.64318238 0.747959087,6.73958957 L6.72129241,8.17843189 L8.14280939,14.2244199 C8.23781937,14.6287712 8.56336826,14.9221844 8.97219061,14.9705277 C9.37818608,15.0211637 9.77124766,14.807206 9.94911677,14.4387512 L14.4313523,2.42585704 C14.619334,2.04872606 14.5477748,1.59390985 14.2530689,1.29272331 L14.2530689,1.29272331 Z" id="路径"></path>
                    </g>
                </g>
            </g>
        </g>
    </g>
</svg>

<svg width="16" height="16" xmlns="http://www.w3.org/2000/svg"><path d="M14.253 1.293a.956.956 0 00-1.117-.183L.536 4.91a.975.975 0 00-.525.989.967.967 0 00.737.84l5.973 1.438 1.422 6.046c.095.405.42.698.83.747.405.05.798-.164.976-.532l4.482-12.013a.99.99 0 00-.178-1.133z" fill="#0072FF" fill-rule="nonzero"/></svg>
